resources/themes/lulzbot/icons/rotate.svg

<?xml version="1.0" encoding="UTF-8" standalone="no"?>
<svg
   xmlns:dc="http://purl.org/dc/elements/1.1/"
   xmlns:cc="http://creativecommons.org/ns#"
   xmlns:rdf="http://www.w3.org/1999/02/22-rdf-syntax-ns#"
   xmlns:svg="http://www.w3.org/2000/svg"
   xmlns="http://www.w3.org/2000/svg"
   width="80mm"
   height="80mm"
   viewBox="0 0 283.46457 283.46457"
   id="svg38008"
   version="1.1">
  <defs
     id="defs38010" />
  <metadata
     id="metadata38013">
    <rdf:RDF>
      <cc:Work
         rdf:about="">
        <dc:format>image/svg+xml</dc:format>
        <dc:type
           rdf:resource="http://purl.org/dc/dcmitype/StillImage" />
        <dc:title></dc:title>
      </cc:Work>
    </rdf:RDF>
  </metadata>
  <g
     id="layer1"
     transform="matrix(1.0754575,0,0,1.0754575,-10.714142,-837.33167)">
    <g
       transform="matrix(2.4090538,0,0,2.4090538,-2393.6656,680.3677)"
       id="g37582">
      <g
         id="g37586"
         transform="translate(140.29418,-30.229133)">
        <path
           style="color:#000000;font-style:normal;font-variant:normal;font-weight:normal;font-stretch:normal;font-size:medium;line-height:normal;font-family:sans-serif;text-indent:0;text-align:start;text-decoration:none;text-decoration-line:none;text-decoration-style:solid;text-decoration-color:#000000;letter-spacing:normal;word-spacing:normal;text-transform:none;direction:ltr;block-progression:tb;writing-mode:lr-tb;baseline-shift:baseline;text-anchor:start;white-space:normal;clip-rule:nonzero;display:inline;overflow:visible;visibility:visible;opacity:1;isolation:auto;mix-blend-mode:normal;color-interpolation:sRGB;color-interpolation-filters:linearRGB;solid-color:#000000;solid-opacity:1;fill:#000000;fill-opacity:1;fill-rule:nonzero;stroke:none;stroke-width:1;stroke-linecap:butt;stroke-linejoin:miter;stroke-miterlimit:10;stroke-dasharray:none;stroke-dashoffset:0;stroke-opacity:1;color-rendering:auto;image-rendering:auto;shape-rendering:auto;text-rendering:auto;enable-background:accumulate"
           d="m 156.1582,64.630859 -1.04101,0.322266 -96.248049,29.435547 0,17.394528 c -6.67105,2.49894 -12.525725,5.22001 -17.59375,8.07227 -19.787478,11.13628 -28.128453,24.18338 -26.857422,34.06055 2.880455,22.38247 26.345703,31.94531 26.345703,31.94531 l 0.640625,0.26562 17.464844,-4.40234 0,15.54297 89.124999,14.14844 73.94531,-12.32813 0,-52.03711 47.7461,8.74219 -5.63086,-51.71094 -29.74805,11.07031 c -0.71549,-0.32081 -5.09134,-2.2486 -12.36719,-4.70312 l 0,-2.2793 -65.78125,-43.539061 z m -0.73632,5.023438 57.29882,37.921873 c -3.37818,-0.97774 -7.12186,-1.96195 -11.15625,-2.92187 l -46.28906,-27.976566 0,6.054688 31.10938,18.802738 c -3.45399,-0.59455 -7.04209,-1.14298 -10.77149,-1.615238 l -20.33789,-11.673828 0,5.972656 7.73242,4.4375 C 155.4928,98.105384 147.56987,97.884706 139.33398,98.130859 107.2788,99.088868 82.347713,103.72424 63.462891,110.13867 l 0,-12.35742 91.958989,-28.126953 z M 144.41797,102.2207 c 50.84318,-0.35878 88.99219,17.07227 88.99219,17.07227 l 0.78906,0.36133 26.28125,-9.78125 4.44141,40.79687 -74.03321,-13.55664 28.10352,-9.79687 -6.79102,-1.69922 c 0,0 -34.56274,-8.67139 -65.59179,-9.90235 -21.11286,-0.83755 -45.52564,3.33508 -64.597661,10.16602 -9.536013,3.41547 -17.732415,7.48143 -23.564453,12.06641 -5.832038,4.58498 -9.521602,9.92377 -8.882813,15.72461 0.415788,3.77464 2.808055,7.41121 4.988281,10.36132 1.874724,2.53673 3.20639,3.91029 3.677735,4.41211 l -0.1875,9.17578 -16.238281,4.0918 c -1.632565,-0.7198 -20.817895,-9.50933 -23.240235,-28.33203 -0.890318,-6.91866 5.777439,-19.19662 24.761719,-29.88086 18.984279,-10.68425 49.93606,-19.8088 96.132808,-21.18945 1.66567,-0.0498 3.31889,-0.0783 4.95899,-0.0899 z m -1.8457,17.58008 c 1.30314,0.0128 2.59422,0.0431 3.87109,0.0937 5.55356,0.22032 11.01399,0.65404 16.26758,1.20508 l 25.02539,12.68555 -6.33985,2.20898 -26.12109,-12.45312 0,5.73437 62.07031,29.59375 0,4.73828 -62.07031,-27.41797 0,5.66016 62.07031,27.42187 0,5.17774 -62.07031,-25.48047 0,5.58984 62.07031,25.48047 0,5.09961 -62.07031,-24.02929 0,5.57031 62.07031,24.02929 0,4.48633 -0.0195,0.004 -62.16211,-21.66602 c 0,0 -70.370878,15.7224 -90.533201,19.99805 l -1.167968,-0.18555 0,-53.87304 c 5.131582,-3.4975 12.028528,-6.81389 19.958984,-9.6543 17.352525,-6.21507 39.603165,-10.21012 59.150395,-10.01758 z m 35.58984,3.32031 c 5.43131,0.84917 10.26785,1.74714 14.47851,2.58985 l 7.14454,3.87304 -5.25782,1.83399 -16.36523,-8.29688 z m 15.60937,18.77149 15.5918,2.85547 7.98242,4.04687 0,4.33789 -23.57422,-11.24023 z m -134.902339,1.20508 0,19.67968 c -0.315361,-0.39995 -0.627486,-0.78719 -0.955079,-1.23046 -2.004826,-2.71277 -3.959747,-6.21319 -4.193359,-8.33399 -0.350025,-3.17858 1.389678,-6.61267 5.148438,-10.11523 z"
           transform="matrix(0.41510073,0,0,0.41510073,853.31817,66.977972)"
           id="path37588" />
      </g>
    </g>
  </g>
</svg>

<?xml version="1.0" encoding="UTF-8" standalone="no"?>
<svg
   xmlns:dc="http://purl.org/dc/elements/1.1/"
   xmlns:cc="http://creativecommons.org/ns#"
   xmlns:rdf="http://www.w3.org/1999/02/22-rdf-syntax-ns#"
   xmlns:svg="http://www.w3.org/2000/svg"
   xmlns="http://www.w3.org/2000/svg"
   version="1.1"
   id="svg38008"
   viewBox="0 0 283.46457 283.46457"
   height="80mm"
   width="80mm">
  <defs
     id="defs38010" />
  <metadata
     id="metadata38013">
    <rdf:RDF>
      <cc:Work
         rdf:about="">
        <dc:format>image/svg+xml</dc:format>
        <dc:type
           rdf:resource="http://purl.org/dc/dcmitype/StillImage" />
        <dc:title></dc:title>
      </cc:Work>
    </rdf:RDF>
  </metadata>
  <g
     transform="translate(0,-768.89763)"
     id="layer1">
    <g
       id="g37582"
       transform="matrix(2.4090538,0,0,2.4090538,-2393.6656,680.3677)">
      <g
         transform="translate(140.29418,-30.229133)"
         id="g37586">
        <path
           id="path37588"
           transform="matrix(0.41510073,0,0,0.41510073,853.31817,66.977972)"
           d="M 156.1582 64.630859 L 155.11719 64.953125 L 58.869141 94.388672 L 58.869141 111.7832 C 52.198091 114.28214 46.343416 117.00321 41.275391 119.85547 C 21.487913 130.99175 13.146938 144.03885 14.417969 153.91602 C 17.298424 176.29849 40.763672 185.86133 40.763672 185.86133 L 41.404297 186.12695 L 58.869141 181.72461 L 58.869141 197.26758 L 147.99414 211.41602 L 221.93945 199.08789 L 221.93945 147.05078 L 269.68555 155.79297 L 264.05469 104.08203 L 234.30664 115.15234 C 233.59115 114.83153 229.2153 112.90374 221.93945 110.44922 L 221.93945 108.16992 L 156.1582 64.630859 z M 155.42188 69.654297 L 212.7207 107.57617 C 209.34252 106.59843 205.59884 105.61422 201.56445 104.6543 L 155.27539 76.677734 L 155.27539 82.732422 L 186.38477 101.53516 C 182.93078 100.94061 179.34268 100.39218 175.61328 99.919922 L 155.27539 88.246094 L 155.27539 94.21875 L 163.00781 98.65625 C 155.4928 98.105384 147.56987 97.884706 139.33398 98.130859 C 107.2788 99.088868 82.347713 103.72424 63.462891 110.13867 L 63.462891 97.78125 L 155.42188 69.654297 z M 144.41797 102.2207 C 195.26115 101.86192 233.41016 119.29297 233.41016 119.29297 L 234.19922 119.6543 L 260.48047 109.87305 L 264.92188 150.66992 L 190.88867 137.11328 L 218.99219 127.31641 L 212.20117 125.61719 C 212.20117 125.61719 177.63843 116.9458 146.60938 115.71484 C 125.49652 114.87729 101.08374 119.04992 82.011719 125.88086 C 72.475706 129.29633 64.279304 133.36229 58.447266 137.94727 C 52.615228 142.53225 48.925664 147.87104 49.564453 153.67188 C 49.980241 157.44652 52.372508 161.08309 54.552734 164.0332 C 56.427458 166.56993 57.759124 167.94349 58.230469 168.44531 L 58.042969 177.62109 L 41.804688 181.71289 C 40.172123 180.99309 20.986793 172.20356 18.564453 153.38086 C 17.674135 146.4622 24.341892 134.18424 43.326172 123.5 C 62.310451 112.81575 93.262232 103.6912 139.45898 102.31055 C 141.12465 102.26076 142.77787 102.23228 144.41797 102.2207 z M 142.57227 119.80078 C 143.87541 119.81362 145.16649 119.84388 146.44336 119.89453 C 151.99692 120.11485 157.45735 120.54857 162.71094 121.09961 L 187.73633 133.78516 L 181.39648 135.99414 L 155.27539 123.54102 L 155.27539 129.27539 L 217.3457 158.86914 L 217.3457 163.60742 L 155.27539 136.18945 L 155.27539 141.84961 L 217.3457 169.27148 L 217.3457 174.44922 L 155.27539 148.96875 L 155.27539 154.55859 L 217.3457 180.03906 L 217.3457 185.13867 L 155.27539 161.10938 L 155.27539 166.67969 L 217.3457 190.70898 L 217.3457 195.19531 L 217.32617 195.19922 L 155.16406 173.5332 C 155.16406 173.5332 84.793182 189.2556 64.630859 193.53125 L 63.462891 193.3457 L 63.462891 139.47266 C 68.594473 135.97516 75.491419 132.65877 83.421875 129.81836 C 100.7744 123.60329 123.02504 119.60824 142.57227 119.80078 z M 178.16211 123.12109 C 183.59342 123.97026 188.42996 124.86823 192.64062 125.71094 L 199.78516 129.58398 L 194.52734 131.41797 L 178.16211 123.12109 z M 193.77148 141.89258 L 209.36328 144.74805 L 217.3457 148.79492 L 217.3457 153.13281 L 193.77148 141.89258 z M 58.869141 143.09766 L 58.869141 162.77734 C 58.55378 162.37739 58.241655 161.99015 57.914062 161.54688 C 55.909236 158.83411 53.954315 155.33369 53.720703 153.21289 C 53.370678 150.03431 55.110381 146.60022 58.869141 143.09766 z "
           style="color:#000000;font-style:normal;font-variant:normal;font-weight:normal;font-stretch:normal;font-size:medium;line-height:normal;font-family:sans-serif;text-indent:0;text-align:start;text-decoration:none;text-decoration-line:none;text-decoration-style:solid;text-decoration-color:#000000;letter-spacing:normal;word-spacing:normal;text-transform:none;direction:ltr;block-progression:tb;writing-mode:lr-tb;baseline-shift:baseline;text-anchor:start;white-space:normal;clip-rule:nonzero;display:inline;overflow:visible;visibility:visible;opacity:1;isolation:auto;mix-blend-mode:normal;color-interpolation:sRGB;color-interpolation-filters:linearRGB;solid-color:#000000;solid-opacity:1;fill:#000000;fill-opacity:1;fill-rule:nonzero;stroke:none;stroke-width:1;stroke-linecap:butt;stroke-linejoin:miter;stroke-miterlimit:10;stroke-dasharray:none;stroke-dashoffset:0;stroke-opacity:1;color-rendering:auto;image-rendering:auto;shape-rendering:auto;text-rendering:auto;enable-background:accumulate" />
      </g>
    </g>
  </g>
</svg>
